64x64/apps/Xfwm4CompositeEditor.svg

<svg xmlns="http://www.w3.org/2000/svg" width="64" height="64" version="1">
 <circle style="opacity:0.2" cx="32" cy="33" r="28"/>
 <circle style="fill:#00796b" cx="32" cy="32" r="28"/>
 <path style="opacity:0.2" d="m 35.944062,13.0007 c -0.692326,-0.01576 -1.198448,0.232791 -1.652258,0.749976 -0.388214,0.442505 -0.823546,1.236473 -0.964794,1.765566 -0.51814,1.941035 -2.939666,3.189261 -5.077858,2.613195 -1.049144,-0.282657 -1.543848,-0.726338 -3.242018,-2.898341 -0.772936,-0.988622 -1.43582,-0.967467 -3.331858,0.113277 -1.801408,1.027011 -2.020319,1.690953 -1.206968,3.714721 0.33608,0.836528 0.62228,1.90917 0.628874,2.382734 0.0166,1.170846 -1.020612,3.022852 -2.062393,3.691284 -0.853895,0.54788 -2.64387,0.674356 -4.074006,0.289054 -1.359951,-0.366396 -2.054659,0.279162 -2.628769,2.433512 -0.447041,1.67752 -0.447003,1.924926 0.02344,2.460856 0.287427,0.327674 1.224703,0.89875 2.078016,1.265584 0.85336,0.366848 1.792332,0.938462 2.089735,1.277302 0.627893,0.71545 1.03067,2.783282 0.749961,3.867058 -0.203175,0.786936 -1.176934,2.012362 -1.964741,2.47648 -0.858648,0.50585 -1.685844,1.623354 -1.66007,2.242114 0.03303,0.7927 1.16181,2.775756 1.878808,3.300672 0.410657,0.30071 0.753482,0.337536 1.281183,0.14062 1.546673,-0.576914 4.038592,-0.983348 4.788814,-0.781224 1.13105,0.304724 2.742134,1.809092 2.93344,2.746004 0.09002,0.441256 0.0885,1.41154 0,2.156178 -0.214738,1.805956 -0.0398,2.731706 0.582002,3.050682 0.282776,0.14468 0.737036,0.382984 1.007758,0.527326 0.270242,0.14616 0.91823,0.323034 1.441332,0.39061 1.364188,0.17696 2.331714,-0.617406 3.08187,-2.542884 0.685914,-1.760524 0.931064,-2.01122 2.48815,-2.507728 1.581162,-0.504204 2.680262,-0.389408 3.589658,0.374988 0.753994,0.633834 1.046772,0.93818 2.206916,2.265548 0.849982,0.9727 1.525886,1.032198 3.015466,0.253898 2.239758,-1.1704 2.463294,-1.885966 1.3554,-4.210796 -1.054662,-2.212682 -0.477236,-4.432268 1.484296,-5.726376 0.75115,-0.495514 1.326224,-0.578122 3.128744,-0.46092 2.721524,0.177 3.258616,-0.1323 3.827926,-2.238208 0.56873,-2.103304 0.327804,-2.538684 -1.99599,-3.5741 -2.211112,-0.985166 -2.815316,-1.709498 -3.136554,-3.765502 -0.267096,-1.709498 0.15818,-2.555374 2.156134,-4.265484 1.024538,-0.876856 1.60206,-1.560166 1.605388,-1.914 0.0072,-0.789698 -1.797568,-3.63955 -2.410032,-3.80456 -0.283626,-0.07642 -1.142268,0.13234 -1.913962,0.457016 -2.128736,0.895954 -3.268266,0.921848 -4.667726,0.10938 -1.644416,-0.95443 -2.073212,-1.87723 -1.941304,-4.171746 0.151482,-2.635168 -0.06322,-3.17263 -1.48039,-3.734251 -0.472082,-0.187499 -0.88445,-0.325304 -1.253844,-0.410143 l 0.004,-0.0039 c -0.27714,-0.06364 -0.531,-0.100216 -0.761776,-0.105472 z"/>
 <path style="fill:#18c28c" d="m 35.944062,12.0007 c -0.692326,-0.01576 -1.198448,0.232791 -1.652258,0.749976 -0.388214,0.442505 -0.823546,1.236473 -0.964794,1.765566 -0.51814,1.941035 -2.939666,3.189261 -5.077858,2.613195 -1.049144,-0.282657 -1.543848,-0.726338 -3.242018,-2.898341 -0.772936,-0.988622 -1.43582,-0.967467 -3.331858,0.113277 -1.801408,1.027011 -2.020319,1.690953 -1.206968,3.714721 0.33608,0.836528 0.62228,1.90917 0.628874,2.382734 0.0166,1.170846 -1.020612,3.022852 -2.062393,3.691284 -0.853895,0.54788 -2.64387,0.674356 -4.074006,0.289054 -1.359951,-0.366396 -2.054659,0.279162 -2.628769,2.433512 -0.447041,1.67752 -0.447003,1.924926 0.02344,2.460856 0.287427,0.327674 1.224703,0.89875 2.078016,1.265584 0.85336,0.366848 1.792332,0.938462 2.089735,1.277302 0.627893,0.71545 1.03067,2.783282 0.749961,3.867058 -0.203175,0.786936 -1.176934,2.012362 -1.964741,2.47648 -0.858648,0.50585 -1.685844,1.623354 -1.66007,2.242114 0.03303,0.7927 1.16181,2.775756 1.878808,3.300672 0.410657,0.30071 0.753482,0.337536 1.281183,0.14062 1.546673,-0.576914 4.038592,-0.983348 4.788814,-0.781224 1.13105,0.304724 2.742134,1.809092 2.93344,2.746004 0.09002,0.441256 0.0885,1.41154 0,2.156178 -0.214738,1.805956 -0.0398,2.731706 0.582002,3.050682 0.282776,0.14468 0.737036,0.382984 1.007758,0.527326 0.270242,0.14616 0.91823,0.323034 1.441332,0.39061 1.364188,0.17696 2.331714,-0.617406 3.08187,-2.542884 0.685914,-1.760524 0.931064,-2.01122 2.48815,-2.507728 1.581162,-0.504204 2.680262,-0.389408 3.589658,0.374988 0.753994,0.633834 1.046772,0.93818 2.206916,2.265548 0.849982,0.9727 1.525886,1.032198 3.015466,0.253898 2.239758,-1.1704 2.463294,-1.885966 1.3554,-4.210796 -1.054662,-2.212682 -0.477236,-4.432268 1.484296,-5.726376 0.75115,-0.495514 1.326224,-0.578122 3.128744,-0.46092 2.721524,0.177 3.258616,-0.1323 3.827926,-2.238208 0.56873,-2.103304 0.327804,-2.538684 -1.99599,-3.5741 -2.211112,-0.985166 -2.815316,-1.709498 -3.136554,-3.765502 -0.267096,-1.709498 0.15818,-2.555374 2.156134,-4.265484 1.024538,-0.876856 1.60206,-1.560166 1.605388,-1.914 0.0072,-0.789698 -1.797568,-3.63955 -2.410032,-3.80456 -0.283626,-0.07642 -1.142268,0.132342 -1.913962,0.457016 -2.128736,0.895954 -3.268266,0.921848 -4.667726,0.10938 -1.644416,-0.95443 -2.073212,-1.87723 -1.941304,-4.171746 0.151482,-2.635168 -0.06322,-3.17263 -1.48039,-3.734251 -0.472082,-0.187499 -0.88445,-0.325304 -1.253844,-0.410143 l 0.004,-0.0039 C 36.428702,12.042532 36.174842,12.005956 35.944066,12.0007 Z"/>
 <path style="opacity:0.1;fill:#f4f4f7" d="M 32 4 A 28 28 0 0 0 4 32 A 28 28 0 0 0 4.0175781 32.492188 A 28 28 0 0 1 32 5 A 28 28 0 0 1 59.974609 32.492188 A 28 28 0 0 0 60 32 A 28 28 0 0 0 32 4 z"/>
 <circle style="opacity:0.2" cx="32" cy="32.999" r="8"/>
 <circle style="fill:#f4f4f7" cx="32" cy="32" r="8"/>
 <path style="opacity:0.2;fill:#f4f4f7" d="M 35.943359 12.001953 C 35.251033 11.986193 34.744826 12.234768 34.291016 12.751953 C 33.902802 13.194458 33.46742 13.988485 33.326172 14.517578 C 32.808032 16.458613 30.388192 17.706925 28.25 17.130859 C 27.200856 16.848202 26.705983 16.404425 25.007812 14.232422 C 24.234876 13.2438 23.571819 13.264959 21.675781 14.345703 C 20.288241 15.136761 19.847167 15.717652 20.085938 16.865234 C 20.253848 16.300834 20.756015 15.870077 21.675781 15.345703 C 23.571819 14.264959 24.234876 14.2438 25.007812 15.232422 C 26.705983 17.404425 27.200856 17.848202 28.25 18.130859 C 30.388192 18.706925 32.808032 17.458613 33.326172 15.517578 C 33.46742 14.988485 33.902802 14.194458 34.291016 13.751953 C 34.744826 13.234768 35.251033 12.986193 35.943359 13.001953 C 36.174135 13.007209 36.427942 13.043782 36.705078 13.107422 L 36.701172 13.111328 C 37.070566 13.196167 37.482996 13.333985 37.955078 13.521484 C 38.967929 13.922875 39.361453 14.325232 39.451172 15.476562 C 39.496131 13.576301 39.201522 13.015447 37.955078 12.521484 C 37.482996 12.333985 37.070566 12.196167 36.701172 12.111328 L 36.705078 12.107422 C 36.427942 12.043782 36.174135 12.007209 35.943359 12.001953 z M 39.431641 17.375 C 39.322936 19.577011 39.763199 20.491101 41.376953 21.427734 C 42.776413 22.240202 43.916186 22.214313 46.044922 21.318359 C 46.816616 20.993685 47.675358 20.784908 47.958984 20.861328 C 48.463545 20.997267 49.763804 22.9411 50.207031 24.068359 C 50.304345 23.910496 50.368161 23.768257 50.369141 23.664062 C 50.376341 22.874364 48.571448 20.026338 47.958984 19.861328 C 47.675358 19.784908 46.816616 19.993685 46.044922 20.318359 C 43.916186 21.214313 42.776413 21.240202 41.376953 20.427734 C 40.034119 19.648345 39.509858 18.876387 39.431641 17.375 z M 21.041016 20.976562 C 20.817641 22.115346 19.929822 23.558773 19.035156 24.132812 C 18.181261 24.680692 16.391073 24.807177 14.960938 24.421875 C 13.600986 24.055479 12.906141 24.701119 12.332031 26.855469 C 12.008358 28.070053 11.922249 28.534845 12.076172 28.902344 C 12.131514 28.628576 12.21517 28.295943 12.332031 27.857422 C 12.906141 25.703072 13.600986 25.057432 14.960938 25.423828 C 16.391073 25.80913 18.181261 25.682646 19.035156 25.134766 C 20.076937 24.466334 21.114256 22.614205 21.097656 21.443359 C 21.095976 21.322692 21.075203 21.161204 21.041016 20.976562 z M 46.576172 29.5625 C 46.520506 29.947744 46.531688 30.360981 46.607422 30.845703 C 46.92866 32.901707 47.533029 33.626162 49.744141 34.611328 C 51.125353 35.226757 51.758673 35.635035 51.935547 36.302734 C 52.1672 34.937583 51.694876 34.478567 49.744141 33.609375 C 47.533029 32.624209 46.92866 31.899754 46.607422 29.84375 C 46.591861 29.744156 46.586859 29.656573 46.576172 29.5625 z M 17.324219 35.419922 C 17.309914 35.525778 17.297493 35.633689 17.273438 35.726562 C 17.070262 36.513498 16.096401 37.739007 15.308594 38.203125 C 14.449946 38.708975 13.622664 39.826552 13.648438 40.445312 C 13.654049 40.579991 13.700242 40.756856 13.761719 40.947266 C 14.012047 40.340305 14.649307 39.591527 15.308594 39.203125 C 16.096401 38.739007 17.070262 37.513498 17.273438 36.726562 C 17.365568 36.37086 17.363132 35.905025 17.324219 35.419922 z M 42.816406 43.992188 C 42.726883 44.825907 42.873328 45.716675 43.298828 46.609375 C 43.590439 47.221298 43.782314 47.71795 43.876953 48.144531 C 44.07232 47.52937 43.851702 46.769538 43.298828 45.609375 C 43.039875 45.066091 42.882246 44.522503 42.816406 43.992188 z M 24.566406 47.369141 C 24.555271 47.586609 24.55497 47.808233 24.53125 48.007812 C 24.447189 48.714773 24.441671 49.251483 24.480469 49.705078 C 24.495029 49.478 24.499885 49.271596 24.53125 49.007812 C 24.596014 48.462888 24.59659 47.859989 24.566406 47.369141 z"/>
</svg>

<svg xmlns="http://www.w3.org/2000/svg" width="64" height="64" version="1"><circle style="opacity:.2" cx="32" cy="33" r="28"/><circle style="fill:#00796b" cx="32" cy="32" r="28"/><path style="opacity:.2" d="M35.944 13c-.692-.015-1.198.233-1.652.75-.388.443-.824 1.237-.965 1.766-.518 1.941-2.94 3.19-5.078 2.613-1.049-.282-1.544-.726-3.242-2.898-.773-.989-1.436-.967-3.332.113-1.801 1.027-2.02 1.691-1.207 3.715.336.837.623 1.91.63 2.383.016 1.17-1.021 3.023-2.063 3.691-.854.548-2.644.674-4.074.29-1.36-.367-2.055.278-2.629 2.433-.447 1.677-.447 1.925.023 2.46.288.328 1.225.9 2.078 1.266.854.367 1.793.939 2.09 1.277.628.716 1.03 2.784.75 3.867-.203.787-1.177 2.013-1.965 2.477-.858.506-1.685 1.623-1.66 2.242.033.793 1.162 2.776 1.88 3.3.41.301.753.338 1.28.141 1.547-.577 4.039-.983 4.79-.78 1.13.304 2.741 1.808 2.933 2.745.09.441.088 1.412 0 2.156-.215 1.806-.04 2.732.582 3.051.282.145.737.383 1.007.527.27.146.919.323 1.442.39 1.364.178 2.331-.616 3.082-2.542.685-1.76.93-2.011 2.488-2.508 1.58-.504 2.68-.39 3.59.375.753.634 1.046.938 2.206 2.266.85.973 1.526 1.032 3.016.254 2.24-1.17 2.463-1.886 1.355-4.211-1.055-2.213-.477-4.432 1.484-5.726.752-.496 1.327-.579 3.13-.461 2.72.177 3.258-.133 3.827-2.239.569-2.103.328-2.538-1.996-3.574-2.211-.985-2.815-1.71-3.136-3.765-.268-1.71.158-2.556 2.156-4.266 1.024-.876 1.602-1.56 1.605-1.914.007-.79-1.797-3.64-2.41-3.804-.284-.077-1.142.132-1.914.457-2.129.896-3.268.922-4.668.11-1.644-.955-2.073-1.878-1.94-4.173.15-2.635-.064-3.172-1.481-3.734a8.801 8.801 0 0 0-1.254-.41l.004-.004a3.83 3.83 0 0 0-.762-.105z"/><path style="fill:#18c28c" d="M35.944 12c-.692-.015-1.198.233-1.652.75-.388.443-.824 1.237-.965 1.766-.518 1.941-2.94 3.19-5.078 2.613-1.049-.282-1.544-.726-3.242-2.898-.773-.989-1.436-.967-3.332.113-1.801 1.027-2.02 1.691-1.207 3.715.336.837.623 1.91.63 2.383.016 1.17-1.021 3.023-2.063 3.691-.854.548-2.644.674-4.074.29-1.36-.367-2.055.278-2.629 2.433-.447 1.677-.447 1.925.023 2.46.288.328 1.225.9 2.078 1.266.854.367 1.793.939 2.09 1.277.628.716 1.03 2.784.75 3.867-.203.787-1.177 2.013-1.965 2.477-.858.506-1.685 1.623-1.66 2.242.033.793 1.162 2.776 1.88 3.3.41.301.753.338 1.28.141 1.547-.577 4.039-.983 4.79-.78 1.13.304 2.741 1.808 2.933 2.745.09.441.088 1.412 0 2.156-.215 1.806-.04 2.732.582 3.051.282.145.737.383 1.007.527.27.146.919.323 1.442.39 1.364.178 2.331-.616 3.082-2.542.685-1.76.93-2.011 2.488-2.508 1.58-.504 2.68-.39 3.59.375.753.634 1.046.938 2.206 2.266.85.973 1.526 1.032 3.016.254 2.24-1.17 2.463-1.886 1.355-4.211-1.055-2.213-.477-4.432 1.484-5.726.752-.496 1.327-.579 3.13-.461 2.72.177 3.258-.133 3.827-2.239.569-2.103.328-2.538-1.996-3.574-2.211-.985-2.815-1.71-3.136-3.765-.268-1.71.158-2.556 2.156-4.266 1.024-.876 1.602-1.56 1.605-1.914.007-.79-1.797-3.64-2.41-3.804-.284-.077-1.142.132-1.914.457-2.129.896-3.268.922-4.668.11-1.644-.955-2.073-1.878-1.94-4.173.15-2.635-.064-3.172-1.481-3.734a8.801 8.801 0 0 0-1.254-.41l.004-.004a3.829 3.829 0 0 0-.762-.105z"/><path style="opacity:.1;fill:#f4f4f7" d="M32 4A28 28 0 0 0 4 32a28 28 0 0 0 .018.492A28 28 0 0 1 32 5a28 28 0 0 1 27.975 27.492A28 28 0 0 0 60 32 28 28 0 0 0 32 4z"/><circle style="opacity:.2" cx="32" cy="32.999" r="8"/><circle style="fill:#f4f4f7" cx="32" cy="32" r="8"/><path style="opacity:.2;fill:#f4f4f7" d="M35.943 12.002c-.692-.016-1.198.233-1.652.75-.388.442-.824 1.236-.965 1.766-.518 1.94-2.938 3.189-5.076 2.613-1.05-.283-1.544-.727-3.242-2.899-.773-.988-1.436-.967-3.332.114-1.388.79-1.829 1.372-1.59 2.52.168-.565.67-.996 1.59-1.52 1.896-1.081 2.559-1.102 3.332-.114 1.698 2.172 2.193 2.616 3.242 2.899 2.138.576 4.558-.672 5.076-2.613.141-.53.577-1.324.965-1.766.454-.517.96-.766 1.652-.75.231.005.485.042.762.105l-.004.004c.37.085.782.223 1.254.41 1.013.402 1.406.804 1.496 1.956.045-1.9-.25-2.462-1.496-2.956a8.802 8.802 0 0 0-1.254-.41l.004-.004c-.277-.063-.53-.1-.762-.105zm3.489 5.373c-.11 2.202.331 3.116 1.945 4.053 1.4.812 2.54.786 4.668-.11.772-.324 1.63-.533 1.914-.457.505.136 1.805 2.08 2.248 3.207.097-.158.161-.3.162-.404.007-.79-1.798-3.638-2.41-3.803-.284-.076-1.142.133-1.914.457-2.129.896-3.269.922-4.668.11-1.343-.78-1.867-1.552-1.945-3.053zM21.04 20.977c-.223 1.138-1.111 2.582-2.006 3.156-.854.548-2.644.674-4.074.289-1.36-.367-2.055.28-2.629 2.433-.324 1.215-.41 1.68-.256 2.047.056-.273.14-.606.256-1.045.574-2.154 1.269-2.8 2.629-2.433 1.43.385 3.22.259 4.074-.29 1.042-.668 2.08-2.52 2.063-3.69a2.97 2.97 0 0 0-.057-.467zm25.535 8.585c-.055.386-.044.799.031 1.284.322 2.056.926 2.78 3.137 3.765 1.381.616 2.015 1.024 2.192 1.692.231-1.365-.241-1.824-2.192-2.694-2.211-.985-2.815-1.71-3.137-3.765-.015-.1-.02-.187-.03-.282zM17.324 35.42c-.014.106-.027.214-.05.307-.204.786-1.178 2.012-1.965 2.476-.86.506-1.686 1.624-1.66 2.242.005.135.051.312.113.502.25-.607.887-1.355 1.547-1.744.787-.464 1.761-1.69 1.964-2.476.093-.356.09-.822.051-1.307zm25.492 8.572c-.09.834.057 1.725.483 2.617.291.612.483 1.109.578 1.536.195-.616-.025-1.375-.578-2.536a5.264 5.264 0 0 1-.483-1.617zm-18.25 3.377c-.01.218-.011.44-.035.639-.084.707-.09 1.243-.05 1.697.014-.227.019-.433.05-.697a9.562 9.562 0 0 0 .035-1.639z"/></svg>
